packages/ffe-icons/icons/open/400/sm/menu.svg

<svg xmlns="http://www.w3.org/2000/svg" height="20" viewBox="0 -960 960 960" width="20"><path d="M180-264q-15.3 0-25.65-10.289-10.35-10.29-10.35-25.5Q144-315 154.35-325.5 164.7-336 180-336h600q15.3 0 25.65 10.289 10.35 10.29 10.35 25.5Q816-285 805.65-274.5 795.3-264 780-264H180Zm0-180q-15.3 0-25.65-10.289-10.35-10.29-10.35-25.5Q144-495 154.35-505.5 164.7-516 180-516h600q15.3 0 25.65 10.289 10.35 10.29 10.35 25.5Q816-465 805.65-454.5 795.3-444 780-444H180Zm0-180q-15.3 0-25.65-10.289-10.35-10.29-10.35-25.5Q144-675 154.35-685.5 164.7-696 180-696h600q15.3 0 25.65 10.289 10.35 10.29 10.35 25.5Q816-645 805.65-634.5 795.3-624 780-624H180Z"/></svg>

<svg xmlns="http://www.w3.org/2000/svg" height="20" viewBox="0 -960 960 960" width="20"><path d="M180-264q-15.3 0-25.65-10.29Q144-284.58 144-299.79t10.35-25.71Q164.7-336 180-336h600q15.3 0 25.65 10.29Q816-315.42 816-300.21t-10.35 25.71Q795.3-264 780-264H180Zm0-180q-15.3 0-25.65-10.29Q144-464.58 144-479.79t10.35-25.71Q164.7-516 180-516h600q15.3 0 25.65 10.29Q816-495.42 816-480.21t-10.35 25.71Q795.3-444 780-444H180Zm0-180q-15.3 0-25.65-10.29Q144-644.58 144-659.79t10.35-25.71Q164.7-696 180-696h600q15.3 0 25.65 10.29Q816-675.42 816-660.21t-10.35 25.71Q795.3-624 780-624H180Z"/></svg>
